flaticon/security/traffic-cone.svg

<svg xmlns="http://www.w3.org/2000/svg" width="32" height="32" viewBox="0 0 24 24">
    <path d="M 22.605469 15.503906 L 17.507812 13.867188 L 14.433594 2.71875 L 14.429688 2.703125 C 14.234375 2.089844 14.015625 1.550781 13.773438 1.105469 C 13.410156 0.421875 12.695312 0 11.914062 0 C 11.910156 0 11.90625 0 11.898438 0 C 11.105469 0.00390625 10.417969 0.425781 10.054688 1.121094 C 9.824219 1.566406 9.617188 2.101562 9.433594 2.71875 L 6.496094 13.371094 L 1.394531 15.503906 L 1.347656 15.527344 C 0.921875 15.769531 0.652344 16.203125 0.621094 16.6875 C 0.589844 17.175781 0.800781 17.640625 1.1875 17.9375 L 11.347656 23.71875 C 11.605469 23.90625 11.910156 24 12.210938 24 C 12.492188 24 12.769531 23.917969 13.003906 23.753906 L 22.761719 17.976562 C 23.179688 17.683594 23.414062 17.207031 23.378906 16.695312 C 23.347656 16.183594 23.058594 15.738281 22.605469 15.503906 Z M 8.722656 8.453125 C 9.703125 8.882812 10.824219 9.117188 11.933594 9.117188 C 13.171875 9.117188 14.394531 8.707031 15.128906 8.398438 L 16.003906 11.566406 C 15.289062 12.207031 13.90625 12.890625 12.082031 12.890625 C 10.292969 12.890625 8.640625 12.347656 7.871094 11.527344 Z M 9.804688 4.519531 L 9.917969 4.558594 C 10.554688 4.78125 10.976562 4.925781 11.933594 4.925781 C 12.757812 4.925781 13.261719 4.765625 13.84375 4.582031 L 14.058594 4.515625 L 14.90625 7.585938 C 14.246094 7.867188 13.089844 8.277344 11.933594 8.277344 C 10.894531 8.277344 9.847656 8.050781 8.945312 7.636719 Z M 10.238281 2.949219 C 10.40625 2.390625 10.59375 1.902344 10.800781 1.507812 C 11.015625 1.089844 11.429688 0.839844 11.90625 0.839844 C 11.910156 0.839844 11.910156 0.839844 11.914062 0.839844 C 12.394531 0.839844 12.8125 1.085938 13.035156 1.503906 C 13.25 1.902344 13.449219 2.386719 13.625 2.949219 L 13.835938 3.707031 L 13.59375 3.785156 C 13.03125 3.960938 12.628906 4.089844 11.933594 4.089844 C 11.117188 4.089844 10.808594 3.980469 10.195312 3.769531 L 10.027344 3.710938 Z M 7.625 12.429688 C 8.628906 13.234375 10.28125 13.726562 12.082031 13.726562 C 13.910156 13.726562 15.34375 13.125 16.246094 12.449219 L 16.554688 13.558594 L 16.789062 14.417969 C 16.792969 14.433594 16.796875 14.449219 16.800781 14.46875 C 16.882812 14.816406 16.835938 15.175781 16.675781 15.472656 C 16.621094 15.578125 16.550781 15.675781 16.46875 15.761719 C 15.886719 16.363281 14.625 17.078125 11.933594 17.078125 C 9.238281 17.078125 7.980469 16.363281 7.398438 15.761719 C 7.066406 15.417969 6.941406 14.902344 7.074219 14.417969 L 7.476562 12.957031 Z M 6.214844 14.445312 C 6.210938 14.484375 6.207031 14.523438 6.203125 14.5625 C 6.195312 14.617188 6.191406 14.671875 6.1875 14.726562 C 6.1875 14.765625 6.1875 14.804688 6.1875 14.84375 C 6.1875 14.894531 6.191406 14.949219 6.195312 15.003906 C 6.199219 15.042969 6.203125 15.082031 6.210938 15.121094 C 6.21875 15.175781 6.226562 15.226562 6.238281 15.28125 C 6.246094 15.316406 6.253906 15.355469 6.261719 15.390625 C 6.277344 15.445312 6.296875 15.496094 6.3125 15.546875 C 6.324219 15.582031 6.335938 15.617188 6.351562 15.652344 C 6.371094 15.707031 6.394531 15.757812 6.421875 15.808594 C 6.4375 15.839844 6.449219 15.871094 6.46875 15.902344 C 6.5 15.957031 6.53125 16.007812 6.566406 16.058594 C 6.585938 16.082031 6.597656 16.109375 6.617188 16.132812 C 6.671875 16.207031 6.730469 16.277344 6.796875 16.34375 C 7.402344 16.972656 8.59375 17.707031 10.882812 17.878906 C 11.210938 17.90625 11.558594 17.917969 11.933594 17.917969 C 12.304688 17.917969 12.65625 17.90625 12.980469 17.878906 C 15.273438 17.707031 16.460938 16.972656 17.070312 16.34375 C 17.160156 16.253906 17.234375 16.152344 17.304688 16.046875 C 17.324219 16.019531 17.339844 15.992188 17.355469 15.964844 C 17.417969 15.863281 17.472656 15.761719 17.515625 15.652344 C 17.519531 15.644531 17.523438 15.636719 17.527344 15.628906 C 17.570312 15.511719 17.605469 15.394531 17.628906 15.269531 C 17.636719 15.238281 17.640625 15.203125 17.648438 15.171875 C 17.664062 15.0625 17.675781 14.953125 17.675781 14.84375 C 17.675781 14.828125 17.679688 14.816406 17.679688 14.800781 L 20.820312 15.804688 L 12.34375 21.199219 L 2.988281 15.742188 L 6.222656 14.394531 C 6.21875 14.410156 6.21875 14.425781 6.214844 14.445312 Z M 22.308594 17.273438 L 12.550781 23.050781 C 12.332031 23.203125 12.042969 23.195312 11.832031 23.035156 L 1.675781 17.253906 C 1.523438 17.128906 1.441406 16.945312 1.457031 16.742188 C 1.46875 16.542969 1.574219 16.371094 1.742188 16.265625 L 2.035156 16.144531 C 2.050781 16.15625 2.0625 16.175781 2.082031 16.183594 L 12.363281 22.179688 L 21.796875 16.175781 C 21.816406 16.164062 21.828125 16.148438 21.84375 16.132812 L 22.246094 16.261719 C 22.421875 16.363281 22.53125 16.539062 22.542969 16.75 C 22.558594 16.964844 22.460938 17.164062 22.308594 17.273438 Z M 22.308594 17.273438"/>
</svg>

<svg xmlns="http://www.w3.org/2000/svg" width="32" height="32" viewBox="0 0 24 24">
    <path d="M22.605 15.504l-5.097-1.637L14.434 2.72l-.004-.016a9.265 9.265 0 0 0-.657-1.598A2.097 2.097 0 0 0 11.914 0h-.016a2.06 2.06 0 0 0-1.843 1.121c-.23.445-.438.98-.621 1.598L6.496 13.37l-5.101 2.133-.047.023a1.452 1.452 0 0 0-.16 2.41l10.16 5.782c.257.187.562.281.863.281.281 0 .559-.082.793-.246l9.758-5.777c.418-.293.652-.77.617-1.282a1.427 1.427 0 0 0-.774-1.191zM8.723 8.454c.98.429 2.101.663 3.21.663 1.239 0 2.462-.41 3.196-.719l.875 3.168c-.715.641-2.098 1.325-3.922 1.325-1.789 0-3.441-.543-4.21-1.364zM9.805 4.52l.113.039c.637.222 1.059.367 2.016.367.824 0 1.328-.16 1.91-.344l.215-.066.847 3.07c-.66.281-1.816.691-2.972.691a7.262 7.262 0 0 1-2.989-.64zm.433-1.57a8.29 8.29 0 0 1 .563-1.442A1.22 1.22 0 0 1 11.906.84h.008c.48 0 .899.246 1.121.664.215.398.414.883.59 1.445l.21.758-.241.078c-.563.176-.965.305-1.66.305-.817 0-1.125-.11-1.739-.32l-.168-.06zm-2.613 9.48c1.004.804 2.656 1.297 4.457 1.297 1.828 0 3.262-.602 4.164-1.278l.309 1.11.234.859.012.05a1.43 1.43 0 0 1-.125 1.005 1.26 1.26 0 0 1-.207.289c-.582.601-1.844 1.316-4.535 1.316-2.696 0-3.954-.715-4.536-1.316a1.404 1.404 0 0 1-.324-1.344l.403-1.461zm-1.41 2.015l-.012.117c-.008.055-.012.11-.016.165v.117c0 .05.004.105.008.16.004.039.008.078.016.117.008.055.016.106.027.16l.024.11c.015.054.035.105.05.156.012.035.024.07.04.105.02.055.043.106.07.157.016.03.027.062.047.093.031.055.062.106.097.157.02.023.032.05.051.074.055.074.113.144.18.21.605.63 1.797 1.364 4.086 1.536.328.027.676.039 1.05.039.372 0 .723-.012 1.047-.04 2.293-.171 3.48-.905 4.09-1.534a1.911 1.911 0 0 0 .285-.38c.063-.1.118-.202.16-.312.005-.007.008-.015.012-.023.043-.117.078-.234.102-.36.008-.03.012-.066.02-.097.015-.11.027-.219.027-.328 0-.016.004-.028.004-.043l3.14 1.004-8.476 5.394-9.356-5.457 3.235-1.347c-.004.015-.004.03-.008.05zm16.094 2.828l-9.758 5.778a.61.61 0 0 1-.719-.016L1.676 17.254a.592.592 0 0 1-.219-.512.598.598 0 0 1 .285-.476l.293-.121c.016.011.027.03.047.039l10.281 5.996 9.434-6.004c.02-.012.031-.028.047-.043l.402.129a.59.59 0 0 1 .297.488.594.594 0 0 1-.234.523zm0 0"/>
</svg>
